Numix/16/status/indicator-keyboard-Ha.svg

<?xml version="1.0" encoding="UTF-8" standalone="no"?>
<svg
   xmlns:dc="http://purl.org/dc/elements/1.1/"
   xmlns:cc="http://creativecommons.org/ns#"
   xmlns:rdf="http://www.w3.org/1999/02/22-rdf-syntax-ns#"
   xmlns:svg="http://www.w3.org/2000/svg"
   xmlns="http://www.w3.org/2000/svg"
   xmlns:sodipodi="http://sodipodi.sourceforge.net/DTD/sodipodi-0.dtd"
   xmlns:inkscape="http://www.inkscape.org/namespaces/inkscape"
   viewBox="0 0 16 16"
   id="svg2"
   version="1.1"
   inkscape:version="0.91 r13725"
   sodipodi:docname="indicator-keyboard-Ha.svg">
  <metadata
     id="metadata13">
    <rdf:RDF>
      <cc:Work
         rdf:about="">
        <dc:format>image/svg+xml</dc:format>
        <dc:type
           rdf:resource="http://purl.org/dc/dcmitype/StillImage" />
      </cc:Work>
    </rdf:RDF>
  </metadata>
  <defs
     id="defs11" />
  <sodipodi:namedview
     pagecolor="#ffffff"
     bordercolor="#666666"
     borderopacity="1"
     objecttolerance="10"
     gridtolerance="10"
     guidetolerance="10"
     inkscape:pageopacity="0"
     inkscape:pageshadow="2"
     inkscape:window-width="640"
     inkscape:window-height="480"
     id="namedview9"
     showgrid="false"
     inkscape:zoom="14.75"
     inkscape:cx="8"
     inkscape:cy="8"
     inkscape:window-x="65"
     inkscape:window-y="24"
     inkscape:window-maximized="0"
     inkscape:current-layer="svg2" />
  <path
     style="fill:#ececec;fill-opacity:1"
     d="M 1.5996094 0 C 0.71320937 2.9605947e-16 0 0.71320937 0 1.5996094 L 0 14.400391 C 2.9605947e-16 15.286791 0.71320937 16 1.5996094 16 L 14.400391 16 C 15.286791 16 16 15.286791 16 14.400391 L 16 1.5996094 C 16 0.71320937 15.286791 0 14.400391 0 L 1.5996094 0 z M 3.3632812 4.8320312 L 3.9746094 4.8320312 L 3.9746094 7.5410156 L 7.359375 7.5410156 L 7.359375 4.8320312 L 7.9707031 4.8320312 L 7.9707031 11.068359 L 7.359375 11.068359 L 7.359375 8.0722656 L 3.9746094 8.0722656 L 3.9746094 11.068359 L 3.3632812 11.068359 L 3.3632812 4.8320312 z M 10.962891 6.3085938 C 11.268891 6.3085938 11.526328 6.3533594 11.736328 6.4433594 C 11.952328 6.5273594 12.127766 6.6467344 12.259766 6.8027344 C 12.391766 6.9527344 12.486875 7.13375 12.546875 7.34375 C 12.606875 7.55375 12.636719 7.7813437 12.636719 8.0273438 L 12.636719 10.960938 C 12.576719 10.978937 12.489 10.999438 12.375 11.023438 C 12.261 11.041437 12.130469 11.063891 11.980469 11.087891 C 11.830469 11.111891 11.662562 11.128625 11.476562 11.140625 C 11.296562 11.158625 11.109969 11.167969 10.917969 11.167969 C 10.671969 11.167969 10.444375 11.141891 10.234375 11.087891 C 10.030375 11.033891 9.8493594 10.949938 9.6933594 10.835938 C 9.5433594 10.715937 9.4239844 10.564766 9.3339844 10.384766 C 9.2499844 10.198766 9.2070313 9.9749374 9.2070312 9.7109375 C 9.2070312 9.4589375 9.2555625 9.2425 9.3515625 9.0625 C 9.4475625 8.8825 9.5818594 8.7350938 9.7558594 8.6210938 C 9.9298591 8.5010938 10.136953 8.413375 10.376953 8.359375 C 10.616953 8.305375 10.878156 8.2792969 11.160156 8.2792969 C 11.244156 8.2792969 11.331875 8.284875 11.421875 8.296875 C 11.517875 8.302875 11.607406 8.3140313 11.691406 8.3320312 C 11.781406 8.3440313 11.856016 8.3609062 11.916016 8.3789062 C 11.982016 8.3909062 12.028734 8.4020625 12.052734 8.4140625 L 12.052734 8.1269531 C 12.052734 7.9649531 12.039625 7.8082031 12.015625 7.6582031 C 11.991625 7.5022031 11.937516 7.3641406 11.853516 7.2441406 C 11.775516 7.1181406 11.661719 7.0192656 11.511719 6.9472656 C 11.367719 6.8692656 11.175547 6.8300781 10.935547 6.8300781 C 10.593547 6.8300781 10.337922 6.8543437 10.169922 6.9023438 C 10.001922 6.9503438 9.8807344 6.9895312 9.8027344 7.0195312 L 9.7207031 6.5058594 C 9.8227031 6.4578594 9.9794534 6.4130937 10.189453 6.3710938 C 10.405453 6.3290938 10.662891 6.3085937 10.962891 6.3085938 z M 11.142578 8.7832031 C 10.998578 8.7832031 10.849359 8.7943594 10.693359 8.8183594 C 10.537359 8.8363594 10.393719 8.881125 10.261719 8.953125 C 10.129719 9.019125 10.0215 9.1124219 9.9375 9.2324219 C 9.8535 9.3524219 9.8105469 9.5129375 9.8105469 9.7109375 C 9.8105469 9.8849375 9.8385781 10.030391 9.8925781 10.150391 C 9.9525781 10.270391 10.032766 10.367453 10.134766 10.439453 C 10.242766 10.511453 10.369672 10.565563 10.513672 10.601562 C 10.663672 10.631562 10.831578 10.646484 11.017578 10.646484 C 11.245578 10.646484 11.443328 10.640906 11.611328 10.628906 C 11.785328 10.610906 11.932734 10.588453 12.052734 10.564453 L 12.052734 8.9277344 C 11.986734 8.8977344 11.880328 8.8678906 11.736328 8.8378906 C 11.592328 8.8018906 11.394578 8.7832031 11.142578 8.7832031 z "
     id="path4" />
</svg>

<svg xmlns="http://www.w3.org/2000/svg" viewBox="0 0 16 16">
 <path d="m 1.6 0 c -0.886 0 -1.6 0.713 -1.6 1.6 l 0 12.801 c 0 0.886 0.713 1.6 1.6 1.6 l 12.801 0 c 0.886 0 1.6 -0.713 1.6 -1.6 l 0 -12.801 c 0 -0.886 -0.713 -1.6 -1.6 -1.6 l -12.801 0 z m 1.764 4.832 l 0.611 0 l 0 2.709 l 3.385 0 l 0 -2.709 l 0.611 0 l 0 6.236 l -0.611 0 l 0 -2.996 l -3.385 0 l 0 2.996 l -0.611 0 l 0 -6.236 z m 7.6 1.477 c 0.306 0 0.563 0.045 0.773 0.135 c 0.216 0.084 0.391 0.203 0.523 0.359 c 0.132 0.15 0.227 0.331 0.287 0.541 c 0.06 0.21 0.09 0.438 0.09 0.684 l 0 2.934 c -0.06 0.018 -0.148 0.038 -0.262 0.063 c -0.114 0.018 -0.245 0.04 -0.395 0.064 c -0.15 0.024 -0.318 0.041 -0.504 0.053 c -0.18 0.018 -0.367 0.027 -0.559 0.027 c -0.246 0 -0.474 -0.026 -0.684 -0.08 c -0.204 -0.054 -0.385 -0.138 -0.541 -0.252 c -0.15 -0.12 -0.269 -0.271 -0.359 -0.451 c -0.084 -0.186 -0.127 -0.41 -0.127 -0.674 c 0 -0.252 0.049 -0.468 0.145 -0.648 c 0.096 -0.18 0.23 -0.327 0.404 -0.441 c 0.174 -0.12 0.381 -0.208 0.621 -0.262 c 0.24 -0.054 0.501 -0.08 0.783 -0.08 c 0.084 0 0.172 0.006 0.262 0.018 c 0.096 0.006 0.186 0.017 0.27 0.035 c 0.09 0.012 0.165 0.029 0.225 0.047 c 0.066 0.012 0.113 0.023 0.137 0.035 l 0 -0.287 c 0 -0.162 -0.013 -0.319 -0.037 -0.469 c -0.024 -0.156 -0.078 -0.294 -0.162 -0.414 c -0.078 -0.126 -0.192 -0.225 -0.342 -0.297 c -0.144 -0.078 -0.336 -0.117 -0.576 -0.117 c -0.342 0 -0.598 0.024 -0.766 0.072 c -0.168 0.048 -0.289 0.087 -0.367 0.117 l -0.082 -0.514 c 0.102 -0.048 0.259 -0.093 0.469 -0.135 c 0.216 -0.042 0.473 -0.063 0.773 -0.063 z m 0.18 2.475 c -0.144 0 -0.293 0.011 -0.449 0.035 c -0.156 0.018 -0.3 0.063 -0.432 0.135 c -0.132 0.066 -0.24 0.159 -0.324 0.279 c -0.084 0.12 -0.127 0.281 -0.127 0.479 c 0 0.174 0.028 0.319 0.082 0.439 c 0.06 0.12 0.14 0.217 0.242 0.289 c 0.108 0.072 0.235 0.126 0.379 0.162 c 0.15 0.03 0.318 0.045 0.504 0.045 c 0.228 0 0.426 -0.006 0.594 -0.018 c 0.174 -0.018 0.321 -0.04 0.441 -0.064 l 0 -1.637 c -0.066 -0.03 -0.172 -0.06 -0.316 -0.09 c -0.144 -0.036 -0.342 -0.055 -0.594 -0.055 z" style="fill:#ececec;fill-opacity:1"/>
</svg>
